X: 1509
T: Gundy's 2nd Barndance
B: australian traditional tunes wiki
M:4/4
L:1/8
R: Schottische
Q: 1/4=100
K:D
V:1 
A|"D"f>d "A7"e>c "D"d>A (3FGA|d>d c>d "A7"c>B "G"G>A|B2 "A7"a2a>g (3BAB|"D"e>c (3dfd "A7"A3A|
"D"f>d "A7"e>c "D"d>A (3FGA|d>d c>d "A7"c>B "G"G>A|B2 "A7"a2a>g (3BAB|e>c d>c "D"d4|
"D"(3ABA d>c d>A F>A|"A7"c>B "G"B>A "Em"B3A|"A7"(3ABc e>A (3ABc e>c|"D"d>c (3dcB "A7"A4|
"D"(3ABA d>c d>A F>A|"A7"c>B "G"B>A "Em"B3A|"A7"(3ABc e>A (3ABc e>c|"D"d>c "A7"d>c "D"d3||
% abcbook-tune_id 6342d53a345e127bd2d1886c


% abcbook-boost 0
% abcbook-tablature 
% abcbook-transpose 
% abcbook-lastupdated 1665324368490
% abcbook-soundfonts 
% abcbook-repeats 1
% NFF Book 2015

